X: 1
T: Rigaudon
M: 4/4
L: 1/8
R: reel
K: Dmaj
AG|F2D2 D2E2|F2EF D2A2|B2A2 G2G2|FGFE D2AG|F2D2 D2E2|!
F2EF D2A2|B2A2 G2G2|F6 FG|A2D2 D2d2|d2G2 G2e2|!
c2d2 e2f2|edcB A2ef|g2B2 B2cd|e2A2 A2dc|Bcde c3d|!
d6 ef|g2dc B2cd|e2cB A2dc|BAGF E3D|D6||!
AG|FGFE DFEG|FGFE DAdA|BcAB GFGA|FGFE DdAG|!
FGFE DFEG|FGFE DAdA|BcAB GFGA|F6 FG|!
AGFE DAdA|BAGF GBeB|cAdA eAfA|edcB Afef|!
gdcd Bdcd|edcB Adcd|Bcde c3d|d4 zfef|!
gdcd Bdcd|edcB Adcd|BAGF E3D|D8||
